!!!OTL: Tom O'Neil
!!!ONM: 87.
**kern
*clefG2
*k[b-e-a-]
*E-:
*M4/4
*MM110
{8e-
=1
4e-
(8.ff
16ee-)
8cc
8dd
4ee-
=2
4b-
4b-
4b-}
{4e-
=3
4f
4g
4.e-
8e-
=4
2e-
4r}
{(8b-
8a-)
=5
4g
4b-
4ee-
4ff
=6
2ee-
4ee-}
{4b-
=7
4ee-
4ee-
(8dd
8b-)
4cc
=8
2b-
4r}
{4b-
=9
4.g
8b-
4.ee-
8ff
=10
2ee-
4ee-}
{8b-
8b-
=11
4ee-
4ee-
(8dd
8b-)
4cc
=12
2b-
4r}
{4e-
=13
8c
4.gg
4ee-
4b-
=14
8cc
8cc
4b-}
{8e-
8e-
8f
8g
=15
4.e-
8e-
4.e-}
==
*-
!!!CNT: Folksongs of Maritime Canada
!!!MRD: 1928///-1932///
!!!OCL: Helen Creighton
!!!YOR: Songs and Ballads from Nova Scotia
!!!PPR: J.M. Dent & Sons, Limited
!!!PPP: Toronto, Canada
!!!PDT: 1932///
!!!reprint: Dover Publications, 1992: ISBN 0-486-21703-5
!!!ENC1: Craig Stuart Sapp (music and bibliographic data)                       
!!!ENC2: Marcus Pearce (phrase markings and key designations)                   
!!!ENC3: Darrell Conklin (phrase markings and key designations)   
!!!END: 2002/04/10/
!!!EEV: 2004/06/05
!!!MPN: Mr. Ben Henneberry
!!!PPG: 187
!!!EFL: 88/152
!!!ARE: Canada; Nova Scotia
!!!verses: 19
!!!VTS: 2991750997
